website/src/static/charts/stackedhistogramchart.svg

<svg width="144" height="80" viewBox="0 0 144 80" fill="none" xmlns="http://www.w3.org/2000/svg">
<rect width="144" height="80" fill="white"/>
<g clip-path="url(#clip0_430_18845)">
<path d="M8 50C8 48.8954 8.89543 48 10 48H25.6667C26.7712 48 27.6667 48.8954 27.6667 50V76H8V50Z" fill="#FDC23C"/>
<rect x="8" y="76" width="19.6667" height="1" fill="#008FF8"/>
<rect x="8" y="77" width="19.6667" height="1" fill="#8ECDFF"/>
<rect x="8" y="78" width="19.6667" height="7" fill="#C4C7CF"/>
</g>
<g clip-path="url(#clip1_430_18845)">
<path d="M29.6665 20C29.6665 18.8954 30.5619 18 31.6665 18H47.3332C48.4377 18 49.3332 18.8954 49.3332 20V46H29.6665V20Z" fill="#FDC23C"/>
<rect x="29.6665" y="46" width="19.6667" height="13.5" fill="#008FF8"/>
<rect x="29.6665" y="59.5" width="19.6667" height="13.5" fill="#8ECDFF"/>
<rect x="29.6665" y="73" width="19.6667" height="7" fill="#C4C7CF"/>
</g>
<g clip-path="url(#clip2_430_18845)">
<path d="M51.3335 23C51.3335 21.8954 52.2289 21 53.3335 21H69.0002C70.1047 21 71.0002 21.8954 71.0002 23V49H51.3335V23Z" fill="#FDC23C"/>
<rect x="51.3335" y="49" width="19.6667" height="12" fill="#008FF8"/>
<rect x="51.3335" y="61" width="19.6667" height="12" fill="#8ECDFF"/>
<rect x="51.3335" y="73" width="19.6667" height="7" fill="#C4C7CF"/>
</g>
<g clip-path="url(#clip3_430_18845)">
<path d="M73 39C73 37.8954 73.8954 37 75 37H90.6667C91.7712 37 92.6667 37.8954 92.6667 39V65H73V39Z" fill="#FDC23C"/>
<rect x="73" y="65" width="19.6667" height="4" fill="#008FF8"/>
<rect x="73" y="69" width="19.6667" height="4" fill="#8ECDFF"/>
<rect x="73" y="73" width="19.6667" height="7" fill="#C4C7CF"/>
</g>
<g clip-path="url(#clip4_430_18845)">
<path d="M94.6665 26C94.6665 24.8954 95.5619 24 96.6665 24H112.333C113.438 24 114.333 24.8954 114.333 26V52H94.6665V26Z" fill="#FDC23C"/>
<rect x="94.6665" y="52" width="19.6667" height="10.5" fill="#008FF8"/>
<rect x="94.6665" y="62.5" width="19.6667" height="10.5" fill="#8ECDFF"/>
<rect x="94.6665" y="73" width="19.6667" height="7" fill="#C4C7CF"/>
</g>
<g clip-path="url(#clip5_430_18845)">
<path d="M116.333 64C116.333 62.8954 117.229 62 118.333 62H134C135.105 62 136 62.8954 136 64V90H116.333V64Z" fill="#FDC23C"/>
</g>
<defs>
<clipPath id="clip0_430_18845">
<path d="M8 50C8 48.8954 8.89543 48 10 48H25.6667C26.7712 48 27.6667 48.8954 27.6667 50V80H8V50Z" fill="white"/>
</clipPath>
<clipPath id="clip1_430_18845">
<path d="M29.6665 20C29.6665 18.8954 30.5619 18 31.6665 18H47.3332C48.4377 18 49.3332 18.8954 49.3332 20V80H29.6665V20Z" fill="white"/>
</clipPath>
<clipPath id="clip2_430_18845">
<path d="M51.3335 23C51.3335 21.8954 52.2289 21 53.3335 21H69.0002C70.1047 21 71.0002 21.8954 71.0002 23V80H51.3335V23Z" fill="white"/>
</clipPath>
<clipPath id="clip3_430_18845">
<path d="M73 39C73 37.8954 73.8954 37 75 37H90.6667C91.7712 37 92.6667 37.8954 92.6667 39V80H73V39Z" fill="white"/>
</clipPath>
<clipPath id="clip4_430_18845">
<path d="M94.6665 26C94.6665 24.8954 95.5619 24 96.6665 24H112.333C113.438 24 114.333 24.8954 114.333 26V80H94.6665V26Z" fill="white"/>
</clipPath>
<clipPath id="clip5_430_18845">
<path d="M116.333 64C116.333 62.8954 117.229 62 118.333 62H134C135.105 62 136 62.8954 136 64V80H116.333V64Z" fill="white"/>
</clipPath>
</defs>
</svg>

<svg xmlns="http://www.w3.org/2000/svg" width="144" height="80" fill="none" viewBox="0 0 144 80">
  <g clip-path="url(#a)">
    <path fill="#FDC23C" d="M8 50a2 2 0 0 1 2-2h15.667a2 2 0 0 1 2 2v26H8V50Z"/>
    <path fill="#008FF8" d="M8 76h19.667v1H8z"/>
    <path fill="#8ECDFF" d="M8 77h19.667v1H8z"/>
    <path fill="#C4C7CF" d="M8 78h19.667v7H8z"/>
  </g>
  <g clip-path="url(#b)">
    <path fill="#FDC23C" d="M29.666 20a2 2 0 0 1 2-2h15.667a2 2 0 0 1 2 2v26H29.667V20Z"/>
    <path fill="#008FF8" d="M29.666 46h19.667v13.5H29.666z"/>
    <path fill="#8ECDFF" d="M29.666 59.5h19.667V73H29.666z"/>
    <path fill="#C4C7CF" d="M29.666 73h19.667v7H29.666z"/>
  </g>
  <g clip-path="url(#c)">
    <path fill="#FDC23C" d="M51.334 23a2 2 0 0 1 2-2H69a2 2 0 0 1 2 2v26H51.334V23Z"/>
    <path fill="#008FF8" d="M51.334 49h19.667v12H51.334z"/>
    <path fill="#8ECDFF" d="M51.334 61h19.667v12H51.334z"/>
    <path fill="#C4C7CF" d="M51.334 73h19.667v7H51.334z"/>
  </g>
  <g clip-path="url(#d)">
    <path fill="#FDC23C" d="M73 39a2 2 0 0 1 2-2h15.667a2 2 0 0 1 2 2v26H73V39Z"/>
    <path fill="#008FF8" d="M73 65h19.667v4H73z"/>
    <path fill="#8ECDFF" d="M73 69h19.667v4H73z"/>
    <path fill="#C4C7CF" d="M73 73h19.667v7H73z"/>
  </g>
  <g clip-path="url(#e)">
    <path fill="#FDC23C" d="M94.666 26a2 2 0 0 1 2-2h15.667a2 2 0 0 1 2 2v26H94.667V26Z"/>
    <path fill="#008FF8" d="M94.666 52h19.667v10.5H94.666z"/>
    <path fill="#8ECDFF" d="M94.666 62.5h19.667V73H94.666z"/>
    <path fill="#C4C7CF" d="M94.666 73h19.667v7H94.666z"/>
  </g>
  <g clip-path="url(#f)">
    <path fill="#FDC23C" d="M116.333 64a2 2 0 0 1 2-2H134a2 2 0 0 1 2 2v26h-19.667V64Z"/>
  </g>
  <defs>
    <clipPath id="a">
      <path fill="#fff" d="M8 50a2 2 0 0 1 2-2h15.667a2 2 0 0 1 2 2v30H8V50Z"/>
    </clipPath>
    <clipPath id="b">
      <path fill="#fff" d="M29.666 20a2 2 0 0 1 2-2h15.667a2 2 0 0 1 2 2v60H29.667V20Z"/>
    </clipPath>
    <clipPath id="c">
      <path fill="#fff" d="M51.334 23a2 2 0 0 1 2-2H69a2 2 0 0 1 2 2v57H51.334V23Z"/>
    </clipPath>
    <clipPath id="d">
      <path fill="#fff" d="M73 39a2 2 0 0 1 2-2h15.667a2 2 0 0 1 2 2v41H73V39Z"/>
    </clipPath>
    <clipPath id="e">
      <path fill="#fff" d="M94.666 26a2 2 0 0 1 2-2h15.667a2 2 0 0 1 2 2v54H94.667V26Z"/>
    </clipPath>
    <clipPath id="f">
      <path fill="#fff" d="M116.333 64a2 2 0 0 1 2-2H134a2 2 0 0 1 2 2v16h-19.667V64Z"/>
    </clipPath>
  </defs>
</svg>
